X:1
T:Title
%%score { ( 1 4 ) | ( 2 3 ) }
L:1/8
M:9/8
K:G
V:1 treble nm="Grand Piano"
V:4 treble 
V:2 treble 
V:3 treble 
V:1
 z3 z3[Q:1/4=108] G2 A | B3 G3 GA[DGB] | [CEA]3 [A,CE]3 [A,EA]2 [EB] | [Ec]3- [Ec]2 A z Fc | %4
[M:3/4] [DB]6 |[M:3/8] B2 c |[M:9/8] d3 B3 GBd | [Ec]3 [CE]3 AB[Ec] | %8
 [DB]3- [DB]2 [B,DG] [DGB]2 [CFA] |[M:3/4] [G,B,DG]6 |[M:12/8] z3 [CA]6 z3 | z3 B6 [B,G]3 | %12
 B2 c d2 ^c e2 d d2 B | z3 D3 z3 d3 | z3 [DB]6 d3 | z3 [EA]6 z3 | %16
 [DB]2 [EA] [DG]2 D G2 B [Fe]2 [Fd] |[M:9/8] [FA]2 B [G,B,DG]6- | [G,B,DG]3 z3 z3 |] %19
V:2
 z3 z3 [G,B,D]2 [G,CD] | [G,DG]3 [G,B,D]3 [G,D]-[G,CD][K:bass]G, | C,3 C,3 C,2 [B,,^G,] | %3
 [A,,A,]3- [A,,A,]2 [D,F,D] D,-[D,A,][D,F,D] |[M:3/4] [G,,G,]6 |[M:3/8][K:treble] [G,D]2 [G,A,D] | %6
[M:9/8] [G,B,G]3 [G,DG]3 [G,B,D]2 [G,B,=F] | [C,G,]3 [C,G,]3 [C,G,]2 [C,G,] | %8
 [D,G,]3- [D,G,]2 D, D,2 D, |[M:3/4] G,,6 |[M:12/8] z6 z3 F,3 | z3 G,3 z6 | %12
 [G,D]2 [G,A,D] [G,B,G]2 [G,_B,G] [G,CG]2 [G,=B,G] [G,B,G]2 [G,DG] | %13
 [F,D]2 [E,^C] D,3 D,2 D, .[D,A,]3 | z6 z3[K:treble] .[G,B,]3 | .B,3[K:bass] z3 z6 | z6 .D3 z3 | %17
[M:9/8] z2 F G,,6- | G,,3 z3 z3 |] %19
V:3
 x9 | z3 z3 .B,3[K:bass] | x9 | z3 z3 .F,3 |[M:3/4] x6 |[M:3/8][K:treble] x3 |[M:9/8] x9 | x9 | %8
 x9 |[M:3/4] x6 |[M:12/8] D,2 D, D,2 D, D,2 D, D,2 C, | B,,2 [A,,F,] G,,2 G,, G,2 G, G,2 G, | x12 | %13
 x12 | [B,,G,]2 [A,,F,] [G,,G,]2 G,, G,,2 G,,[K:treble] =F2- [G,F] | %15
 [G,=F]-[G,CF]G,[K:bass] C,2 C, C,2 C, [A,,A,]2 [A,,A,] | %16
 [C,^G,]2 [C,A,] [D,B,]3 [D,B,]2- [D,B,G] [D,A,]3 |[M:9/8] [D,C]3 z3 z3 | x9 |] %19
V:4
 x9 | x9 | x9 | z3 z3 .D3 |[M:3/4] x6 |[M:3/8] x3 |[M:9/8] x9 | z3 z3 .E3 | x9 |[M:3/4] x6 | %10
[M:12/8] [A,DF]2 [B,DG] F2 F F2 F D2 D | [G,DG]2 [DA] D2 D D2 D D2 D | x12 | %13
 A2 G [FA]3- [DF-A-]2 [DF-A] F2- [C,F] | [Dd]2 [Dc] z2 G, G,2 G, z2 B, | %15
 GA[D=FB] C2 C A,2 A, [Ec]3 | x12 |[M:9/8] x9 | x9 |] %19

